assets/components_previews/other/light/html.svg

<svg xmlns="http://www.w3.org/2000/svg" width="320" height="232" fill="none" viewBox="0 0 320 232"><path fill="#AA99EC" fill-rule="evenodd" d="M165.118 103.222a1 1 0 0 0 .104 1.411l1.84 1.585c.366.316.587.508.728.657-.141.149-.362.341-.728.657l-1.84 1.586a1 1 0 0 0 1.306 1.515l1.84-1.586.043-.038c.349-.3.684-.589.923-.859.262-.296.541-.713.541-1.275s-.279-.979-.541-1.275c-.239-.27-.574-.558-.923-.859l-.043-.038-1.84-1.585a1 1 0 0 0-1.41.104m-2.486 0a1 1 0 0 1-.104 1.411l-1.84 1.585c-.366.316-.587.508-.728.657.141.149.362.341.728.657l1.84 1.586a1 1 0 0 1-1.306 1.515l-1.84-1.586-.043-.038c-.349-.3-.684-.589-.923-.859-.262-.296-.541-.713-.541-1.275s.279-.979.541-1.275c.239-.27.574-.558.923-.859l.043-.038 1.84-1.585a1 1 0 0 1 1.41.104" clip-rule="evenodd"/><path fill="#AA99EC" d="M154.812 110.522c.982.103.545.103 2.086.103a.978.978 0 0 0 0-1.955c-1.609 0-1.015-.001-1.885-.092-.854-.089-1.337-.256-1.695-.509a3 3 0 0 1-.632-.596c-.255-.323-.425-.755-.517-1.542-.095-.81-.097-1.867-.097-3.391v-2.9c0-.267 0-.906.281-1.378.173-.29.394-.534.622-.658a2.6 2.6 0 0 1 1.233-.312l1.041.036c.38.008.823-.004 1.251-.119a2.42 2.42 0 0 0 1.709-1.709c.115-.428.127-.871.119-1.251l-.036-1.04c0-.469.124-.876.341-1.254.127-.22.348-.423.653-.6.462-.269 1.015-.271 1.353-.273l.993-.002c1.834 0 2.501.014 3.005.19.872.308 1.538.95 1.848 1.735.078.197.133.455.162.903.03.457.031 1.04.031 1.88v5.113a.974.974 0 1 0 1.947 0v-5.146c0-.8 0-1.447-.035-1.975-.036-.545-.111-1.03-.294-1.495-.529-1.34-1.638-2.373-3.014-2.858-.859-.303-2.331-.303-3.886-.302-2.84 0-4.526 0-5.909.487-2.22.782-3.994 2.444-4.837 4.58-.281.712-.406 1.477-.466 2.394-.059.9-.059 2.013-.059 3.432v2.583c0 1.448 0 2.621.11 3.558.114.974.357 1.812.927 2.531.295.372.644.701 1.034.977.745.527 1.606.75 2.616.855" opacity=".4"/><path fill="#AA99EC" d="M129.894 138v-8.8h1.952v1.776h.544l-.592.48q0-1.12.656-1.76.672-.656 1.824-.656 1.344 0 2.096.864t.752 2.416v.832h-2v-.736q0-.816-.416-1.232t-1.184-.416q-.784 0-1.216.48-.416.48-.416 1.36V138zm7.978 0 3.072-4.544-2.864-4.256h2.256l1.36 2.16q.128.192.224.432l.176.384q.063-.144.176-.384.111-.24.224-.432l1.36-2.16h2.272l-2.864 4.256L146.32 138h-2.272l-1.52-2.416a4 4 0 0 1-.24-.448 7 7 0 0 0-.192-.384l-.176.384q-.112.24-.24.448L140.144 138zm13.177.16q-.672 0-1.088-.4-.4-.416-.4-1.072 0-.672.4-1.072.416-.416 1.088-.416t1.072.416q.416.4.416 1.072 0 .656-.416 1.072-.4.4-1.072.4m5.386-.16v-11.68h2v2.88l-.048 1.68h.544l-.592.464q.017-1.056.672-1.68.656-.624 1.744-.624 1.296 0 2.064.864.784.864.784 2.32V138h-2v-5.536q0-.816-.416-1.248-.416-.448-1.152-.448-.752 0-1.184.448-.416.448-.416 1.28V138zm13.402 0q-1.232 0-1.968-.704-.72-.72-.72-1.936v-4.352h-2.432V129.2h2.432v-2.48h2.016v2.48h3.504v1.808h-3.504v4.304a.98.98 0 0 0 .208.64q.224.24.608.24h2.608V138zm4.026 0v-8.8h1.664v1.28h.336l-.304.224q0-.736.4-1.2t1.072-.464q.72 0 1.168.56.464.544.464 1.424l-.384-.576h.544l-.256.256q.015-.768.432-1.216.415-.448 1.104-.448.815 0 1.328.624.528.624.528 1.632V138h-1.76v-6.56q0-.432-.208-.672-.192-.256-.56-.256a.64.64 0 0 0-.544.256q-.176.24-.176.672V138h-1.6v-6.56q0-.432-.192-.672-.177-.256-.528-.256-.369 0-.576.256-.192.24-.192.672V138zm14.425 0q-.863 0-1.52-.352a2.6 2.6 0 0 1-1.008-.992q-.368-.656-.368-1.504v-7.024h-2.896v-1.808h4.896v8.784q0 .496.272.8.288.288.768.288h2.576V138z"/></svg>

<svg width="320" height="232" viewBox="0 0 320 232" fill="none" xmlns="http://www.w3.org/2000/svg">
<path fill-rule="evenodd" clip-rule="evenodd" d="M165.118 103.222C164.757 103.641 164.804 104.272 165.222 104.633L167.062 106.218C167.428 106.534 167.649 106.726 167.79 106.875C167.649 107.024 167.428 107.216 167.062 107.532L165.222 109.118C164.804 109.478 164.757 110.11 165.118 110.528C165.478 110.946 166.11 110.993 166.528 110.633L168.368 109.047C168.382 109.034 168.397 109.022 168.411 109.009C168.76 108.709 169.095 108.42 169.334 108.15C169.596 107.854 169.875 107.437 169.875 106.875C169.875 106.313 169.596 105.896 169.334 105.6C169.095 105.33 168.76 105.042 168.411 104.741C168.397 104.728 168.382 104.716 168.368 104.703L166.528 103.118C166.11 102.757 165.478 102.804 165.118 103.222Z" fill="#AA99EC"/>
<path fill-rule="evenodd" clip-rule="evenodd" d="M162.632 103.222C162.993 103.641 162.946 104.272 162.528 104.633L160.688 106.218C160.322 106.534 160.101 106.726 159.96 106.875C160.101 107.024 160.322 107.216 160.688 107.532L162.528 109.118C162.946 109.478 162.993 110.11 162.632 110.528C162.272 110.946 161.641 110.993 161.222 110.633L159.382 109.047C159.368 109.034 159.353 109.022 159.339 109.009C158.99 108.709 158.655 108.42 158.416 108.15C158.154 107.854 157.875 107.437 157.875 106.875C157.875 106.313 158.154 105.896 158.416 105.6C158.655 105.33 158.99 105.042 159.339 104.741C159.353 104.728 159.368 104.716 159.382 104.703L161.222 103.118C161.641 102.757 162.272 102.804 162.632 103.222Z" fill="#AA99EC"/>
<path opacity="0.4" d="M154.812 110.522C155.794 110.625 155.357 110.625 156.898 110.625C157.437 110.625 157.875 110.187 157.875 109.648C157.875 109.108 157.437 108.67 156.898 108.67C155.289 108.67 155.883 108.669 155.013 108.578C154.159 108.489 153.676 108.322 153.318 108.069C153.076 107.898 152.864 107.697 152.686 107.473C152.431 107.15 152.261 106.718 152.169 105.931C152.074 105.121 152.072 104.064 152.072 102.54L152.072 99.64C152.072 99.373 152.072 98.7344 152.353 98.2623C152.526 97.9713 152.747 97.7282 152.975 97.6044C153.341 97.4048 153.762 97.2915 154.208 97.2915L155.249 97.328C155.629 97.3359 156.072 97.3239 156.5 97.2091C157.334 96.9857 157.986 96.3343 158.209 95.5003C158.324 95.0722 158.336 94.6286 158.328 94.2485L158.292 93.2082C158.292 92.7405 158.416 92.3333 158.633 91.9549C158.76 91.7343 158.981 91.5324 159.286 91.3551C159.748 91.0862 160.301 91.0837 160.639 91.0822C160.977 91.0807 161.334 91.0795 161.632 91.0795C163.466 91.0795 164.133 91.0935 164.637 91.2708C165.509 91.5783 166.175 92.2199 166.485 93.0053C166.563 93.2019 166.618 93.4603 166.647 93.9083C166.677 94.365 166.678 94.9479 166.678 95.7882V100.901C166.678 101.439 167.114 101.875 167.651 101.875C168.189 101.875 168.625 101.439 168.625 100.901V95.755C168.625 94.9558 168.625 94.3083 168.59 93.7797C168.554 93.2351 168.479 92.7494 168.296 92.2852C167.767 90.9459 166.658 89.9117 165.282 89.4266C164.423 89.1241 162.951 89.1245 161.396 89.125C158.556 89.1246 156.87 89.1244 155.487 89.6115C153.267 90.3937 151.493 92.0564 150.65 94.1925C150.369 94.9044 150.244 95.6691 150.184 96.586C150.125 97.4867 150.125 98.5993 150.125 100.018V102.601C150.125 104.049 150.125 105.222 150.235 106.159C150.349 107.133 150.592 107.971 151.162 108.69C151.457 109.062 151.806 109.391 152.196 109.667C152.941 110.194 153.802 110.417 154.812 110.522Z" fill="#AA99EC"/>
<path d="M129.894 138V129.2H131.846V130.976H132.39L131.798 131.456C131.798 130.709 132.017 130.123 132.454 129.696C132.902 129.259 133.51 129.04 134.278 129.04C135.174 129.04 135.873 129.328 136.374 129.904C136.875 130.48 137.126 131.285 137.126 132.32V133.152H135.126V132.416C135.126 131.872 134.987 131.461 134.71 131.184C134.433 130.907 134.038 130.768 133.526 130.768C133.003 130.768 132.598 130.928 132.31 131.248C132.033 131.568 131.894 132.021 131.894 132.608V138H129.894ZM137.872 138L140.944 133.456L138.08 129.2H140.336L141.696 131.36C141.781 131.488 141.856 131.632 141.92 131.792C141.994 131.952 142.053 132.08 142.096 132.176C142.138 132.08 142.197 131.952 142.272 131.792C142.346 131.632 142.421 131.488 142.496 131.36L143.856 129.2H146.128L143.264 133.456L146.32 138H144.048L142.528 135.584C142.442 135.445 142.362 135.296 142.288 135.136C142.213 134.976 142.149 134.848 142.096 134.752C142.053 134.848 141.994 134.976 141.92 135.136C141.845 135.296 141.765 135.445 141.68 135.584L140.144 138H137.872ZM151.049 138.16C150.601 138.16 150.239 138.027 149.961 137.76C149.695 137.483 149.561 137.125 149.561 136.688C149.561 136.24 149.695 135.883 149.961 135.616C150.239 135.339 150.601 135.2 151.049 135.2C151.497 135.2 151.855 135.339 152.121 135.616C152.399 135.883 152.537 136.24 152.537 136.688C152.537 137.125 152.399 137.483 152.121 137.76C151.855 138.027 151.497 138.16 151.049 138.16ZM156.435 138V126.32H158.435V129.2L158.387 130.88H158.931L158.339 131.344C158.35 130.64 158.574 130.08 159.011 129.664C159.448 129.248 160.03 129.04 160.755 129.04C161.619 129.04 162.307 129.328 162.819 129.904C163.342 130.48 163.603 131.253 163.603 132.224V138H161.603V132.464C161.603 131.92 161.464 131.504 161.187 131.216C160.91 130.917 160.526 130.768 160.035 130.768C159.534 130.768 159.139 130.917 158.851 131.216C158.574 131.515 158.435 131.941 158.435 132.496V138H156.435ZM169.837 138C169.016 138 168.36 137.765 167.869 137.296C167.389 136.816 167.149 136.171 167.149 135.36V131.008H164.717V129.2H167.149V126.72H169.165V129.2H172.669V131.008H169.165V135.312C169.165 135.568 169.234 135.781 169.373 135.952C169.522 136.112 169.725 136.192 169.981 136.192H172.589V138H169.837ZM173.863 138V129.2H175.527V130.48H175.863L175.559 130.704C175.559 130.213 175.692 129.813 175.959 129.504C176.225 129.195 176.583 129.04 177.031 129.04C177.511 129.04 177.9 129.227 178.199 129.6C178.508 129.963 178.663 130.437 178.663 131.024L178.279 130.448H178.823L178.567 130.704C178.577 130.192 178.721 129.787 178.999 129.488C179.276 129.189 179.644 129.04 180.103 129.04C180.647 129.04 181.089 129.248 181.431 129.664C181.783 130.08 181.959 130.624 181.959 131.296V138H180.199V131.44C180.199 131.152 180.129 130.928 179.991 130.768C179.863 130.597 179.676 130.512 179.431 130.512C179.196 130.512 179.015 130.597 178.887 130.768C178.769 130.928 178.711 131.152 178.711 131.44V138H177.111V131.44C177.111 131.152 177.047 130.928 176.919 130.768C176.801 130.597 176.625 130.512 176.391 130.512C176.145 130.512 175.953 130.597 175.815 130.768C175.687 130.928 175.623 131.152 175.623 131.44V138H173.863ZM188.288 138C187.712 138 187.206 137.883 186.768 137.648C186.342 137.413 186.006 137.083 185.76 136.656C185.515 136.219 185.392 135.717 185.392 135.152V128.128H182.496V126.32H187.392V135.104C187.392 135.435 187.483 135.701 187.664 135.904C187.856 136.096 188.112 136.192 188.432 136.192H191.008V138H188.288Z" fill="#AA99EC"/>
</svg>
